X:1
T: The Eyemouth Petronella
C:Muriel A Johnstone
R:Strathspey
%Q: 128
K:A
M:4/4
L:1/16
|:A2B2|c4 cA3 F4 FA3|EA3 E3D C4 C2D2|E4 E3F E3A ce3|D3F Bd3 c3B GE3|
c4 cA3 F4 FA3|EA3 E3D C4 C2D2|E3A ce3 F3A df3|ea3 c3B A4 A2B2|
c4 cf3 a3g f2e2|e4 de3 c4 c3B|A4 A2c2 d3c BA3|B4 AB3 G4 F2E2|
c4 ((3cBA) F4 ((3FGA)|E3A ce3 f3g a3b|c'4 c4 d3c BA3|EA3 c3B A4:|
